X:1
T:Sys willekomen heire Kerst
T:Anonymous
T:Aachener fragment 11th c. Erfurter Handschrift 1394
T:Sys willekomen heire Kerst
C:Anonymous
%%score [ 1 2 3 ]
L:1/8
Q:1/4=120
M:6/4
K:Bb
V:1 treble nm="Soprano" snm="S"
V:2 treble nm="Alto" snm="A"
V:3 treble-8 nm="Cantus Firmus" snm="T"
V:1
 G2 | F4 G2 A2 G2 A2 | B2 A2 B2 c6 | B6 c2 B2 c2 | d12 | d4 d2 c4 A2 | c2 B2 c2 d6 | %7
w: Sys|wil- * le- * *|kom- * * men,|hei- re _ _|Kerst,|want du on- ser|al- * * re|
 A2 G2 F2 A2 G2 A2 | B6- B4 d2 | d2 c2 B2 A2 G2 F2 | B2 A2 B2 c6 | d2 c2 B2 B2 A2 B2 | c12 | %13
w: hei- * * re _ _|bis, _ sys|wil- * * le- * *|kom- * * men,|lie- * ve hei- * *|re,|
 c4 G2 G2 F2 E2 | G6 A2 G2 A2 | B2 A2 G2 A2 G2 A2 | G12 | _A2 G2 F2 F2 E2 F2 | G6- G4 z2 |] %19
w: her in ert- * *|ri- che _ _|al- * so scho- * *|ne.|Ky- * * rie- * *|leys. _|
V:2
 B,2 | B,2 C2 D2 E2 D2 C2 | E2 D2 E2 F6 | F6 G2 F2 G2 | A12 | A4 A2 F4 F2 | G2 F2 G2 A6 | %7
w: Sys|wil- * * le- * *|kom- * * men,|hei- re _ _|Kerst,|want du on- ser|al- * * re|
 D6 =E2 D2 E2 | F6- F4 F2 | F6 F2 E2 D2 | E6 E2 D2 E2 | F2 E2 D2 E2 D2 E2 | F12 | G4 G2 E6 | %14
w: hei- re _ _|bis, _ sys|wil- le- * *|kom- men, _ _|lie- * ve hei- * *|re,|her in ert-|
 C6 C6 | D4 D2 =E6 | =E12 | F2 E2 D2 C2 B,2 C2 | D6- D4 z2 |] %19
w: ri- che|al- so scho-|ne.|Ky- * * rie- * *|leys. _|
V:3
 G2 | B6 A6 | G6 F6 | B6 e6 | d12 | d4 d2 f4 f2 | e6 d6 | d6 c6 | B6- B4 B2 | B6 d6 | e6 c6 | %11
 B4 A2 G6 | F12 | c4 c2 c6 | e6 c6 | B4 B2 A6 | c12 | F6 _A6 | G6- G4 z2 |] %19

